X:1
T:Scarborough Fair
M:3/4
L:1/8
K:Dmin
z2zD2D|A A3-A A|F3GE D-|D6|z2A2c2|(d/c/) d- d2c2|A2=B2(GA)|A6|z6|zd d2D2|F4G2|A2G2F2|EC- C4|z6|zD D2(G/2A3/2)|G4-G F|E2D2(CD)|D6|]
w:Are you go-ing_ to Scar-bo-rough Fair?_ Par-sley Sage - - - Rose-ma-ry and_ Thyme Re-mem-ber me to one who lives th-ere_For once she_ was_a true love of_ mine
